svg/emoji_u1f689.svg

<svg enable-background="new 0 0 128 128" viewBox="0 0 128 128" xmlns="http://www.w3.org/2000/svg"><polygon points="76 105 92.54 105 124 116 124 124 100 124" fill="#BDBDBD"/><polygon points="100 116 80 104 80 108 100 124" fill="#546E7A"/><rect x="100" y="116" width="24" height="8" fill="#E0E0E0"/><g opacity=".2"><path d="m92.02 108 28.98 10.13v2.87h-19.96l-16.42-13h7.38m0.54-3h-16.54l24 19h24v-8l-31.46-11z" fill="#424242"/></g><path d="m114.37 25.57-27.02-10.85c-1.83-0.73-3.81 0.44-4.42 2.63s0.19 4.55 2.02 5.29l20.05 8.12v83.27s1.12 1.72 4 1.72c3.62 0 4-1.72 4-1.72v-80.44c1 0.46 3.24-0.68 3.81-2.73 0.62-2.19-0.62-4.55-2.44-5.29z" fill="#546E7A"/><g opacity=".2"><path d="m86.24 16.5c0.12 0 0.24 0.03 0.37 0.07l27.01 10.85c0.86 0.35 1.61 1.69 1.27 2.89-0.22 0.77-0.97 1.27-1.3 1.35-0.19-0.06-0.39-0.09-0.58-0.09-0.38 0-0.75 0.11-1.08 0.32-0.57 0.37-0.92 1-0.92 1.68v79.81c-0.25 0.14-0.83 0.36-2 0.36-1.01 0-1.64-0.3-2-0.55v-82.43c0-0.81-0.49-1.55-1.25-1.85l-20.06-8.13c-0.81-0.32-1.19-1.65-0.84-2.89 0.23-0.82 0.8-1.39 1.38-1.39m0-2c-1.46 0-2.82 1.1-3.31 2.85-0.61 2.19 0.19 4.55 2.02 5.29l20.05 8.12v83.27s1.12 1.72 4 1.72c3.62 0 4-1.72 4-1.72v-80.44c0.15 0.07 0.32 0.1 0.52 0.1 1.11 0 2.81-1.09 3.3-2.83 0.61-2.19-0.62-4.55-2.45-5.29l-27.02-10.85c-0.36-0.15-0.74-0.22-1.11-0.22z" fill="#424242"/></g><path d="m20.97 111.92-15.97 12.08h88l-15.93-11.93s-56.4-0.46-56.1-0.15z" fill="#424242"/><path d="m28.62 111.92-11.62 12.08h64l-11.58-11.93s-41.02-0.46-40.8-0.15z" fill="#616161"/><polygon points="55 124 43 124 46 112 52 112" fill="#424242"/><g opacity=".2"><path d="m29.57 113.81c14.29 0 42.19 0.22 46.83 0.25l10.59 7.94h-76.03l10.75-8.13c0.78-0.03 2.78-0.06 7.86-0.06m0-2c-5.23 0-8.68 0.03-8.6 0.1l-15.97 12.09h88l-15.93-11.93s-31.77-0.26-47.5-0.26z" fill="#eee"/></g><polygon points="49.05 29.44 31.44 10.05 32.87 8.75 49.05 26.56 65.46 8.44 66.89 9.74" fill="#546E7A"/><path d="m69.82 8h-41.64c-4.79 0-8.68 3.59-8.68 8.08 0 0.78 0.12 1.69 0.36 2.45 0.07 0.21 0.26 0.47 0.48 0.47h2.12c0.17 0 0.33-0.24 0.42-0.38s0.11-0.4 0.04-0.55c-0.28-0.63-0.42-1.21-0.42-1.88 0-2.91 2.55-5.18 5.68-5.18h41.64c3.13 0 5.68 2.24 5.68 5.15 0 0.68-0.14 1.28-0.42 1.91-0.07 0.15-0.05 0.46 0.04 0.6s0.25 0.35 0.42 0.35h2.12c0.22 0 0.41-0.3 0.48-0.5 0.24-0.76 0.36-1.56 0.36-2.34 0-4.51-3.89-8.18-8.68-8.18z" fill="#212121"/><path d="m73.23 116h-48.36c-2.18 0-3.96-1.78-3.96-3.96v-0.09c0-2.18 1.78-3.96 3.96-3.96h48.37c2.18 0 3.96 1.78 3.96 3.96v0.09c-0.01 2.18-1.79 3.96-3.97 3.96z" fill="#212121"/><g opacity=".2"><path d="m69.82 8h-41.64c-4.79 0-8.68 3.34-8.68 7.83 0 0.78 0.12 1.81 0.36 2.57 0.07 0.21 0.26 0.6 0.48 0.6h2.12c0.17 0 0.33-0.49 0.42-0.63s0.11-0.52 0.04-0.68c-0.28-0.63-0.42-1.02-0.42-1.69 0-2.91 2.55-5 5.68-5h4.13l16.75 18.44 16.69-18.44h4.07c3.13 0 5.68 1.99 5.68 4.9 0 0.68-0.14 1.15-0.42 1.78-0.07 0.15-0.05 0.64 0.04 0.79 0.1 0.13 0.25 0.53 0.42 0.53h2.12c0.22 0 0.41-0.55 0.48-0.75 0.24-0.76 0.36-1.43 0.36-2.21 0-4.5-3.89-8.04-8.68-8.04zm-20.77 18.56-14.13-15.56h28.22l-14.09 15.56z" fill="none" stroke="#eee" stroke-miterlimit="10" stroke-width="1.5"/></g><linearGradient id="a" x1="49" x2="49" y1="24.167" y2="111.25" gradientUnits="userSpaceOnUse"><stop stop-color="#FFCA28" offset=".1355"/><stop stop-color="#FFC21B" offset=".3294"/><stop stop-color="#FFB707" offset=".7004"/><stop stop-color="#FFB300" offset=".9529"/></linearGradient><path d="m76.57 111.96h-55.14c-4.63 0-8.43-4.15-8.43-9.23v-50.73c0-32 16-28 36-28s36-4 36 27.88v50.86c0 5.06-3.79 9.22-8.43 9.22z" fill="url(#a)"/><g opacity=".2"><path d="m60.46 26.84c6.86 0 12.15 0.63 15.66 3.72 3.96 3.48 5.88 10.45 5.88 21.32v50.86c0 3.43-2.43 6.23-5.43 6.23h-55.14c-2.99 0-5.43-2.79-5.43-6.23v-50.74c0-10.92 1.93-17.93 5.9-21.43 3.51-3.1 8.81-3.73 15.68-3.73 1.71 0 3.47 0.04 5.34 0.08 1.97 0.04 4 0.08 6.09 0.08s4.13-0.04 6.11-0.08c1.86-0.04 3.62-0.08 5.34-0.08m0-3c-3.6 0-7.45 0.16-11.46 0.16-4 0-7.84-0.16-11.42-0.16-14.34 0-24.58 2.56-24.58 28.16v50.73c0 5.07 3.79 9.23 8.43 9.23h55.15c4.63 0 8.43-4.15 8.43-9.23v-50.85c-0.01-25.49-10.23-28.04-24.55-28.04z" fill="#424242"/></g><path d="m27.5 41.72c0-1.69-1.37-2.96-2.89-2.74-3.21 0.47-6.2 2.12-6.2 7.57v31.9c0 1.53 1.13 2.76 2.52 2.76h4.06c1.39 0 2.52-1.24 2.52-2.76l-0.01-36.73z" fill="#4FC3F7"/><path d="m70.2 41.72c0-1.69 1.37-2.96 2.89-2.74 3.21 0.47 6.2 2.12 6.2 7.57v31.9c0 1.53-1.13 2.76-2.52 2.76h-4.06c-1.39 0-2.52-1.24-2.52-2.76l0.01-36.73z" fill="#4FC3F7"/><path d="m59.81 85.17h-21.62c-4.42 0-8-3.58-8-8v-37.17c0-4.42 3.58-8 8-8h21.61c4.42 0 8 3.58 8 8v37.17c0.01 4.41-3.58 8-7.99 8z" fill="#4FC3F7"/><path d="m33.38 100.08h-12.42c-2.18 0-3.96-1.78-3.96-3.96v-0.16c0-2.18 1.78-3.96 3.96-3.96h12.42c2.18 0 3.96 1.78 3.96 3.96v0.16c-0.01 2.18-1.79 3.96-3.96 3.96z" fill="#212121"/><path d="m64.96 100.08h12.42c2.18 0 3.96-1.78 3.96-3.96v-0.2c0-2.18-1.78-3.96-3.96-3.96h-12.42c-2.18 0-3.96 1.78-3.96 3.96v0.2c0 2.18 1.78 3.96 3.96 3.96z" fill="#212121"/><path d="m24.48 98.47h5.38c1.35 0 2.45-1.1 2.45-2.45s-1.1-2.45-2.45-2.45h-5.38c-1.35 0-2.45 1.1-2.45 2.45s1.1 2.45 2.45 2.45z" fill="#FFEE58"/><path d="m68.48 98.47h5.38c1.35 0 2.45-1.1 2.45-2.45s-1.1-2.45-2.45-2.45h-5.38c-1.35 0-2.45 1.1-2.45 2.45s1.1 2.45 2.45 2.45z" fill="#FFEE58"/><g opacity=".2"><path d="m73.73 38.16c0.03 0 0.07 0 0.11 0.01 4.67 0.69 5.31 3.58 5.31 6.6v36.13c0 0.61-0.39 1.13-0.85 1.13h-4.6c-0.46 0-0.85-0.52-0.85-1.13v-41.62c0-0.69 0.46-1.12 0.88-1.12m0-2c-1.56 0-2.88 1.36-2.88 3.13v41.61c0 1.73 1.28 3.13 2.85 3.13h4.6c1.57 0 2.85-1.4 2.85-3.13v-36.14c0-6.18-3.39-8.05-7.02-8.58-0.14-0.01-0.27-0.02-0.4-0.02z" fill="#F5F5F5"/></g><g opacity=".2"><path d="m59.81 34c3.31 0 6 2.69 6 6v37.17c0 3.31-2.69 6-6 6h-21.62c-3.31 0-6-2.69-6-6v-37.17c0-3.31 2.69-6 6-6h21.62m0-2h-21.62c-4.42 0-8 3.58-8 8v37.17c0 4.42 3.58 8 8 8h21.61c4.42 0 8-3.58 8-8v-37.17c0.01-4.42-3.58-8-7.99-8z" fill="#F5F5F5"/></g><g opacity=".2"><path d="m24.96 40.96c0.26 0 0.54 0.31 0.54 0.76v36.74c0 0.44-0.27 0.76-0.52 0.76h-4.06c-0.24 0-0.52-0.33-0.52-0.76v-31.9c0-4.34 2.16-5.25 4.49-5.6h0.07m0-2c-0.12 0-0.23 0.01-0.35 0.03-3.21 0.47-6.2 2.12-6.2 7.57v31.9c0 1.53 1.13 2.76 2.52 2.76h4.06c1.39 0 2.52-1.24 2.52-2.76v-36.74c-0.01-1.56-1.17-2.76-2.55-2.76z" fill="#424242"/></g><g opacity=".2"><path d="m72.75 40.96h0.06c2.33 0.34 4.49 1.26 4.49 5.6v31.9c0 0.44-0.27 0.76-0.52 0.76h-4.06c-0.24 0-0.52-0.33-0.52-0.76v-36.74c0-0.46 0.28-0.76 0.55-0.76m0-2c-1.38 0-2.54 1.2-2.54 2.76v36.74c0 1.53 1.13 2.76 2.52 2.76h4.06c1.39 0 2.52-1.24 2.52-2.76v-31.9c0-5.46-2.99-7.1-6.2-7.57-0.13-0.02-0.25-0.03-0.36-0.03z" fill="#424242"/></g><g opacity=".2"><path d="m59.81 34c3.31 0 6 2.69 6 6v37.17c0 3.31-2.69 6-6 6h-21.62c-3.31 0-6-2.69-6-6v-37.17c0-3.31 2.69-6 6-6h21.62m0-2h-21.62c-4.42 0-8 3.58-8 8v37.17c0 4.42 3.58 8 8 8h21.61c4.42 0 8-3.58 8-8v-37.17c0.01-4.42-3.58-8-7.99-8z" fill="#424242"/></g></svg>

<svg width="128" height="128" style="enable-background:new 0 0 128 128;" xmlns="http://www.w3.org/2000/svg" xmlns:xlink="http://www.w3.org/1999/xlink">
  <polygon points="76,105 92.54,105 124,116 124,124 100,124 " style="fill:#BDBDBD;"/>
  <polygon points="100,116 80,104 80,108 100,124 " style="fill:#546E7A;"/>
  <rect height="8" style="fill:#E0E0E0;" width="24" x="100" y="116"/>
  <g style="opacity:0.2;">
    <path d="M92.02,108L121,118.13V121h-19.96l-16.42-13H92 M92.54,105H76l24,19h24v-8L92.54,105L92.54,105z" style="fill:#424242;"/>
  </g>
  <g>
    <path d="M114.37,25.57L87.35,14.72c-1.83-0.73-3.81,0.44-4.42,2.63c-0.61,2.19,0.19,4.55,2.02,5.29 L105,30.76v83.27c0,0,1.12,1.72,4,1.72c3.62,0,4-1.72,4-1.72V33.59c1,0.46,3.24-0.68,3.81-2.73 C117.43,28.67,116.19,26.31,114.37,25.57z" style="fill:#546E7A;"/>
    <g style="opacity:0.2;">
      <path d="M86.24,16.5c0.12,0,0.24,0.03,0.37,0.07l27.01,10.85c0.86,0.35,1.61,1.69,1.27,2.89 c-0.22,0.77-0.97,1.27-1.3,1.35c-0.19-0.06-0.39-0.09-0.58-0.09c-0.38,0-0.75,0.11-1.08,0.32c-0.57,0.37-0.92,1-0.92,1.68v79.81 c-0.25,0.14-0.83,0.36-2,0.36c-1.01,0-1.64-0.3-2-0.55V30.76c0-0.81-0.49-1.55-1.25-1.85L85.7,20.78 c-0.81-0.32-1.19-1.65-0.84-2.89C85.09,17.07,85.66,16.5,86.24,16.5 M86.24,14.5c-1.46,0-2.82,1.1-3.31,2.85 c-0.61,2.19,0.19,4.55,2.02,5.29L105,30.76v83.27c0,0,1.12,1.72,4,1.72c3.62,0,4-1.72,4-1.72V33.59c0.15,0.07,0.32,0.1,0.52,0.1 c1.11,0,2.81-1.09,3.3-2.83c0.61-2.19-0.62-4.55-2.45-5.29L87.35,14.72C86.99,14.57,86.61,14.5,86.24,14.5L86.24,14.5z" style="fill:#424242;"/>
    </g>
  </g>
  <path d="M20.97,111.92L5,124h88l-15.93-11.93C77.07,112.07,20.67,111.61,20.97,111.92z" style="fill:#424242;"/>
  <path d="M28.62,111.92L17,124h64l-11.58-11.93C69.42,112.07,28.4,111.61,28.62,111.92z" style="fill:#616161;"/>
  <polygon points="55,124 43,124 46,112 52,112 " style="fill:#424242;"/>
  <g style="opacity:0.2;">
    <path d="M29.57,113.81c14.29,0,42.19,0.22,46.83,0.25L86.99,122H10.96l10.75-8.13 C22.49,113.84,24.49,113.81,29.57,113.81 M29.57,111.81c-5.23,0-8.68,0.03-8.6,0.1L5,124h88l-15.93-11.93 C77.07,112.07,45.3,111.81,29.57,111.81L29.57,111.81z" style="fill:#EEEEEE;"/>
  </g>
  <g>
    <polygon points="49.05,29.44 31.44,10.05 32.87,8.75 49.05,26.56 65.46,8.44 66.89,9.74 " style="fill:#546E7A;"/>
    <path d="M69.82,8H28.18c-4.79,0-8.68,3.59-8.68,8.08c0,0.78,0.12,1.69,0.36,2.45 c0.07,0.21,0.26,0.47,0.48,0.47h2.12c0.17,0,0.33-0.24,0.42-0.38c0.09-0.14,0.11-0.4,0.04-0.55c-0.28-0.63-0.42-1.21-0.42-1.88 c0-2.91,2.55-5.18,5.68-5.18h41.64c3.13,0,5.68,2.24,5.68,5.15c0,0.68-0.14,1.28-0.42,1.91c-0.07,0.15-0.05,0.46,0.04,0.6 c0.09,0.14,0.25,0.35,0.42,0.35h2.12c0.22,0,0.41-0.3,0.48-0.5c0.24-0.76,0.36-1.56,0.36-2.34C78.5,11.67,74.61,8,69.82,8z" style="fill:#212121;"/>
  </g>
  <path d="M73.23,116H24.87c-2.18,0-3.96-1.78-3.96-3.96v-0.09c0-2.18,1.78-3.96,3.96-3.96h48.37 c2.18,0,3.96,1.78,3.96,3.96v0.09C77.19,114.22,75.41,116,73.23,116z" style="fill:#212121;"/>
  <g style="opacity:0.2;">
    <path d="M69.82,8H28.18c-4.79,0-8.68,3.34-8.68,7.83 c0,0.78,0.12,1.81,0.36,2.57c0.07,0.21,0.26,0.6,0.48,0.6h2.12c0.17,0,0.33-0.49,0.42-0.63c0.09-0.14,0.11-0.52,0.04-0.68 c-0.28-0.63-0.42-1.02-0.42-1.69c0-2.91,2.55-5,5.68-5h4.13l16.75,18.44L65.75,11h4.07c3.13,0,5.68,1.99,5.68,4.9 c0,0.68-0.14,1.15-0.42,1.78c-0.07,0.15-0.05,0.64,0.04,0.79C75.22,18.6,75.37,19,75.54,19h2.12c0.22,0,0.41-0.55,0.48-0.75 c0.24-0.76,0.36-1.43,0.36-2.21C78.5,11.54,74.61,8,69.82,8z M49.05,26.56L34.92,11h28.22L49.05,26.56z" style="fill:none;stroke:#EEEEEE;stroke-width:1.5;stroke-miterlimit:10;"/>
  </g>
  <linearGradient id="SVGID_1_" gradientUnits="userSpaceOnUse" x1="49" x2="49" y1="24.1667" y2="111.2492">
    <stop offset="0.1355" style="stop-color:#FFCA28"/>
    <stop offset="0.3294" style="stop-color:#FFC21B"/>
    <stop offset="0.7004" style="stop-color:#FFB707"/>
    <stop offset="0.9529" style="stop-color:#FFB300"/>
  </linearGradient>
  <path d="M76.57,111.96H21.43c-4.63,0-8.43-4.15-8.43-9.23V52c0-32,16-28,36-28c20,0,36-4,36,27.88 v50.86C85,107.8,81.21,111.96,76.57,111.96z" style="fill:url(#SVGID_1_);"/>
  <g style="opacity:0.2;">
    <path d="M60.46,26.84c6.86,0,12.15,0.63,15.66,3.72C80.08,34.04,82,41.01,82,51.88v50.86 c0,3.43-2.43,6.23-5.43,6.23H21.43c-2.99,0-5.43-2.79-5.43-6.23V52c0-10.92,1.93-17.93,5.9-21.43c3.51-3.1,8.81-3.73,15.68-3.73 c1.71,0,3.47,0.04,5.34,0.08c1.97,0.04,4,0.08,6.09,0.08c2.09,0,4.13-0.04,6.11-0.08C56.98,26.88,58.74,26.84,60.46,26.84 L60.46,26.84 M60.46,23.84C56.86,23.84,53.01,24,49,24c-4,0-7.84-0.16-11.42-0.16C23.24,23.84,13,26.4,13,52v50.73 c0,5.07,3.79,9.23,8.43,9.23h55.15c4.63,0,8.43-4.15,8.43-9.23V51.88C85,26.39,74.78,23.84,60.46,23.84L60.46,23.84z" style="fill:#424242;"/>
  </g>
  <path d="M27.5,41.72c0-1.69-1.37-2.96-2.89-2.74c-3.21,0.47-6.2,2.12-6.2,7.57v31.9 c0,1.53,1.13,2.76,2.52,2.76h4.06c1.39,0,2.52-1.24,2.52-2.76L27.5,41.72z" style="fill:#4FC3F7;"/>
  <path d="M70.2,41.72c0-1.69,1.37-2.96,2.89-2.74c3.21,0.47,6.2,2.12,6.2,7.57v31.9 c0,1.53-1.13,2.76-2.52,2.76h-4.06c-1.39,0-2.52-1.24-2.52-2.76L70.2,41.72z" style="fill:#4FC3F7;"/>
  <path d="M59.81,85.17H38.19c-4.42,0-8-3.58-8-8V40c0-4.42,3.58-8,8-8h21.61c4.42,0,8,3.58,8,8v37.17 C67.81,81.58,64.22,85.17,59.81,85.17z" style="fill:#4FC3F7;"/>
  <path d="M33.38,100.08H20.96c-2.18,0-3.96-1.78-3.96-3.96v-0.16c0-2.18,1.78-3.96,3.96-3.96h12.42 c2.18,0,3.96,1.78,3.96,3.96v0.16C37.33,98.3,35.55,100.08,33.38,100.08z" style="fill:#212121;"/>
  <path d="M64.96,100.08h12.42c2.18,0,3.96-1.78,3.96-3.96v-0.2c0-2.18-1.78-3.96-3.96-3.96H64.96 c-2.18,0-3.96,1.78-3.96,3.96v0.2C61,98.3,62.78,100.08,64.96,100.08z" style="fill:#212121;"/>
  <path d="M24.48,98.47h5.38c1.35,0,2.45-1.1,2.45-2.45v0c0-1.35-1.1-2.45-2.45-2.45h-5.38 c-1.35,0-2.45,1.1-2.45,2.45v0C22.03,97.37,23.13,98.47,24.48,98.47z" style="fill:#FFEE58;"/>
  <path d="M68.48,98.47h5.38c1.35,0,2.45-1.1,2.45-2.45v0c0-1.35-1.1-2.45-2.45-2.45h-5.38 c-1.35,0-2.45,1.1-2.45,2.45v0C66.03,97.37,67.13,98.47,68.48,98.47z" style="fill:#FFEE58;"/>
  <g style="opacity:0.2;">
    <path d="M73.73,38.16L73.73,38.16c0.03,0,0.07,0,0.11,0.01c4.67,0.69,5.31,3.58,5.31,6.6V80.9 c0,0.61-0.39,1.13-0.85,1.13h-4.6c-0.46,0-0.85-0.52-0.85-1.13V39.28C72.85,38.59,73.31,38.16,73.73,38.16 M73.73,36.16 c-1.56,0-2.88,1.36-2.88,3.13V80.9c0,1.73,1.28,3.13,2.85,3.13h4.6c1.57,0,2.85-1.4,2.85-3.13V44.76c0-6.18-3.39-8.05-7.02-8.58 C73.99,36.17,73.86,36.16,73.73,36.16L73.73,36.16z" style="fill:#F5F5F5;"/>
  </g>
  <g style="opacity:0.2;">
    <path d="M59.81,34c3.31,0,6,2.69,6,6v37.17c0,3.31-2.69,6-6,6H38.19c-3.31,0-6-2.69-6-6V40 c0-3.31,2.69-6,6-6H59.81 M59.81,32H38.19c-4.42,0-8,3.58-8,8v37.17c0,4.42,3.58,8,8,8h21.61c4.42,0,8-3.58,8-8V40 C67.81,35.58,64.22,32,59.81,32L59.81,32z" style="fill:#F5F5F5;"/>
  </g>
  <g style="opacity:0.2;">
    <path d="M24.96,40.96c0.26,0,0.54,0.31,0.54,0.76v36.74c0,0.44-0.27,0.76-0.52,0.76h-4.06 c-0.24,0-0.52-0.33-0.52-0.76v-31.9c0-4.34,2.16-5.25,4.49-5.6C24.92,40.96,24.94,40.96,24.96,40.96 M24.96,38.96 c-0.12,0-0.23,0.01-0.35,0.03c-3.21,0.47-6.2,2.12-6.2,7.57v31.9c0,1.53,1.13,2.76,2.52,2.76h4.06c1.39,0,2.52-1.24,2.52-2.76 V41.72C27.5,40.16,26.34,38.96,24.96,38.96L24.96,38.96z" style="fill:#424242;"/>
  </g>
  <g style="opacity:0.2;">
    <path d="M72.75,40.96c0.02,0,0.04,0,0.06,0c2.33,0.34,4.49,1.26,4.49,5.6v31.9c0,0.44-0.27,0.76-0.52,0.76 h-4.06c-0.24,0-0.52-0.33-0.52-0.76V41.72C72.2,41.26,72.48,40.96,72.75,40.96 M72.75,38.96c-1.38,0-2.54,1.2-2.54,2.76v36.74 c0,1.53,1.13,2.76,2.52,2.76h4.06c1.39,0,2.52-1.24,2.52-2.76v-31.9c0-5.46-2.99-7.1-6.2-7.57C72.98,38.97,72.86,38.96,72.75,38.96 L72.75,38.96z" style="fill:#424242;"/>
  </g>
  <g style="opacity:0.2;">
    <path d="M59.81,34c3.31,0,6,2.69,6,6v37.17c0,3.31-2.69,6-6,6H38.19c-3.31,0-6-2.69-6-6V40 c0-3.31,2.69-6,6-6H59.81 M59.81,32H38.19c-4.42,0-8,3.58-8,8v37.17c0,4.42,3.58,8,8,8h21.61c4.42,0,8-3.58,8-8V40 C67.81,35.58,64.22,32,59.81,32L59.81,32z" style="fill:#424242;"/>
  </g>
</svg>
